X:1
T:Polska efter Karl Svensson i kerud
R:Polska
Z:C-G Magnusson, 2008-09-28
O:Bcke, Dalsland
S:efter Axel Norgren, Bcke
B:Svenska Ltar
N:Svenska Ltar, Dalsland nr 208
M:3/4
L:1/8
K:A
E>G (3AGA (3BAG | (3Ace (3fdf e2 | ({G}(3E)FG (3ABc (3dBd | (3cAc (3BGB A2 |
E>G (3AGA (3BAG | (3Ace (3fdf e2 | B>d (3cAc (3BGB | A2 A,2 z2 :|
|: (3eae (3ced (3Bdc | A>d (3fdf e2 | (3eae (3ced (3Bdc | (3AcB G>B E2 |
(3eae (3ced (3Bdc | A>d (3fdf e2 | (3dBd (3cAc (3BGB | A2 A,2 z2 :|
